icon-themes/sifr_svg/cmd/lc_flowchartshapes.flowchart-manual-input.svg

<svg viewBox="0 0 24 24" xmlns="http://www.w3.org/2000/svg"><g fill="#555753"><path d="m3 7.710273v13.289727h18v-18.1347656.5423729z" opacity=".35"/><path d="m22 2-20 5v.710938 14.289062h20zm-2 2.8164064v15.1835936h-16v-11.580078z"/></g></svg>

<svg xmlns="http://www.w3.org/2000/svg" viewBox="0 0 24 24">
  <path
     style="opacity:0.35;fill:#555753"
     d="M 3,7.710273 V 21 H 21 V 2.8652344 3.4076073 Z"
     />
  <path
     style="fill:#555753"
     d="M 22,2 2,7 V 7.710938 22 H 22 Z M 20,4.8164064 V 20 H 4 V 8.419922 Z"
     />
</svg>
